X: 1
T: Gathering Peascods (in G)
O: England 1650
N:
N: J.Barlow p.22 #27
N: Barnes (in A)
N: Playford (in G)
N: Keller p.38 (in A)
N: Karpeles p.12 (in A)
N: Raven p.22 (in A)
Z: John Chambers <jc@trillian.mit.edu>
M: C|
L: 1/4
K: G
|: z | "G"d2 dd | B>c dd | "C"ed cB | "D7"A3 B | AG GF | "G"G3 :|
|: G | "D"FD FG | A2 BA | "G"G/A/B AG | "D"F3 F | "A7"ED ~E>D | "D"D3 :|
|: d | "G"BG GA/B/ | "C"c2 zd | "G"BG GA/B/ | "C"c2 zd  | "G"BG GA/B/ | "C"c>de d/c/ | "G"Bc/B/ "D7"~A>G | "G"G3 :|
